packages/design-assets/icons/16px/Paper.svg

<svg width="16" height="16" xmlns="http://www.w3.org/2000/svg"><path d="M4 0v9H0v4c0 1.7 1.3 3 3 3h10c1.7 0 3-1.3 3-3V0H4zm10 13c0 .6-.4 1-1 1H6V2h8v11zM8 5v2h4V5H8zm0 4v2h4V9H8z" fill="#818F99" fill-rule="evenodd"/></svg>

<?xml version="1.0" encoding="UTF-8"?>
<svg width="16px" height="16px" viewBox="0 0 16 16" version="1.1" xmlns="http://www.w3.org/2000/svg" xmlns:xlink="http://www.w3.org/1999/xlink">
    <!-- Generator: Sketch 54.1 (76490) - https://sketchapp.com -->
    <title>Icons/16px/Paper</title>
    <desc>Created with Sketch.</desc>
    <g id="Icons/16px/Paper" stroke="none" stroke-width="1" fill="none" fill-rule="evenodd">
        <path d="M4,0 L4,9 L0,9 L0,13 C0,14.7 1.3,16 3,16 L13,16 C14.7,16 16,14.7 16,13 L16,0 L4,0 Z M14,13 C14,13.6 13.6,14 13,14 L6,14 L6,2 L14,2 L14,13 Z M8,5 L8,7 L12,7 L12,5 L8,5 Z M8,9 L8,11 L12,11 L12,9 L8,9 Z" id="i-16-paper" fill="#818F99"></path>
    </g>
</svg>
